app/result/img/sl-icon-4.svg

<svg width="30" height="31" viewBox="0 0 30 31" fill="none" xmlns="http://www.w3.org/2000/svg">
<path d="M28.3113 15.9015C28.1866 15.6463 28.1866 15.3537 28.3113 15.0985L29.4675 12.7333C30.1112 11.4163 29.6012 9.84668 28.3064 9.15966L25.9808 7.92573C25.7299 7.79265 25.5579 7.55579 25.5088 7.27613L25.0539 4.683C24.8007 3.23921 23.4652 2.26902 22.014 2.47433L19.4073 2.84306C19.126 2.88278 18.8478 2.79232 18.6437 2.59488L16.7516 0.764448C15.698 -0.254786 14.0475 -0.254846 12.994 0.764448L11.1018 2.59506C10.8976 2.79256 10.6194 2.88284 10.3381 2.84324L7.73144 2.47451C6.27985 2.26908 4.94481 3.23939 4.69154 4.68318L4.23672 7.27619C4.18762 7.55591 4.0156 7.79271 3.76476 7.92585L1.43918 9.15978C0.144343 9.84674 -0.365699 11.4165 0.278028 12.7335L1.43416 15.0986C1.55888 15.3538 1.55888 15.6465 1.43416 15.9017L0.277968 18.2668C-0.365759 19.5838 0.144282 21.1534 1.43912 21.8404L3.7647 23.0744C4.0156 23.2075 4.18762 23.4443 4.23672 23.724L4.69154 26.3171C4.9221 27.6314 6.04911 28.5532 7.34437 28.5531C7.47194 28.5531 7.60139 28.5441 7.7315 28.5257L10.3382 28.157C10.6193 28.1171 10.8977 28.2077 11.1019 28.4052L12.994 30.2356C13.5209 30.7453 14.1967 31.0001 14.8727 31C15.5486 30.9999 16.2249 30.7452 16.7515 30.2356L18.6437 28.4052C18.8478 28.2077 19.1261 28.1175 19.4073 28.157L22.014 28.5257C23.4658 28.7311 24.8007 27.7608 25.0539 26.3171L25.5088 23.724C25.5579 23.4443 25.7299 23.2075 25.9808 23.0744L28.3064 21.8404C29.6012 21.1535 30.1112 19.5837 29.4675 18.2668L28.3113 15.9015ZM27.4683 20.261L25.1428 21.4949C24.4013 21.8884 23.8928 22.5882 23.7478 23.415L23.293 26.0081C23.2073 26.4966 22.7557 26.8247 22.2645 26.7553L19.6578 26.3866C18.8265 26.2689 18.0039 26.5364 17.4005 27.12L15.5084 28.9504C15.152 29.2951 14.5936 29.2951 14.2371 28.9504L12.3449 27.12C11.835 26.6267 11.1684 26.3594 10.4725 26.3594C10.345 26.3594 10.2164 26.3683 10.0877 26.3866L7.48103 26.7553C6.99024 26.8247 6.53826 26.4965 6.45253 26.008L5.99764 23.4149C5.85258 22.5881 5.34411 21.8882 4.6026 21.4949L2.27702 20.2609C1.83891 20.0285 1.66635 19.4974 1.88414 19.0519L3.04033 16.6866C3.40893 15.9325 3.40893 15.0675 3.04033 14.3133L1.88414 11.9481C1.66635 11.5026 1.83891 10.9715 2.27702 10.7391L4.6026 9.50514C5.34405 9.11165 5.85258 8.41185 5.99758 7.58504L6.45241 4.99196C6.53814 4.50348 6.98969 4.17532 7.4809 4.2447L10.0876 4.61343C10.9186 4.73107 11.7415 4.46364 12.3448 3.88003L14.237 2.0496C14.5934 1.70485 15.1518 1.70485 15.5083 2.0496L17.4004 3.88003C18.0038 4.4637 18.8265 4.73107 19.6576 4.61343L22.2643 4.2447C22.7552 4.17526 23.2072 4.50348 23.2928 4.99196L23.7477 7.5851C23.8927 8.41191 24.4012 9.11177 25.1427 9.50514L27.4683 10.7391C27.9064 10.9715 28.079 11.5026 27.8612 11.9481L26.705 14.3133C26.3364 15.0674 26.3364 15.9325 26.705 16.6866L27.8612 19.0518C28.079 19.4974 27.9065 20.0285 27.4683 20.261Z" fill="#BE1622"/>
<path d="M21.4047 8.96797C21.0557 8.61886 20.4896 8.61886 20.1404 8.96797L8.34066 20.7678C7.99155 21.1169 7.99155 21.683 8.34066 22.0321C8.51521 22.2066 8.74402 22.2939 8.97276 22.2939C9.20151 22.2939 9.43037 22.2067 9.60486 22.0321L21.4046 10.2323C21.7539 9.88313 21.7539 9.31714 21.4047 8.96797Z" fill="#BE1622"/>
<path d="M11.2968 7.45432C9.4894 7.45432 8.01892 8.9248 8.01892 10.7322C8.01892 12.5397 9.4894 14.0101 11.2968 14.0101C13.1043 14.0101 14.5747 12.5397 14.5747 10.7322C14.5747 8.9248 13.1043 7.45432 11.2968 7.45432ZM11.2968 12.2221C10.4753 12.2221 9.80691 11.5538 9.80691 10.7322C9.80691 9.91061 10.4753 9.24224 11.2968 9.24224C12.1184 9.24224 12.7868 9.91061 12.7868 10.7322C12.7867 11.5538 12.1184 12.2221 11.2968 12.2221Z" fill="#BE1622"/>
<path d="M18.4485 16.99C16.6411 16.99 15.1706 18.4605 15.1706 20.2679C15.1706 22.0753 16.6411 23.5458 18.4485 23.5458C20.256 23.5458 21.7264 22.0753 21.7264 20.2679C21.7264 18.4605 20.256 16.99 18.4485 16.99ZM18.4485 21.7578C17.627 21.7578 16.9586 21.0894 16.9586 20.2679C16.9586 19.4463 17.6269 18.778 18.4485 18.778C19.2701 18.778 19.9385 19.4463 19.9385 20.2679C19.9385 21.0894 19.2701 21.7578 18.4485 21.7578Z" fill="#BE1622"/>
</svg>

<svg width="30" height="31" viewBox="0 0 30 31" fill="none" xmlns="http://www.w3.org/2000/svg"><path d="M28.311 15.902a.909.909 0 0 1 0-.803l1.157-2.366a2.691 2.691 0 0 0-1.162-3.573l-2.325-1.234a.908.908 0 0 1-.472-.65l-.455-2.593a2.691 2.691 0 0 0-3.04-2.209l-2.607.37a.908.908 0 0 1-.763-.25L16.752.765a2.691 2.691 0 0 0-3.758 0l-1.892 1.831a.909.909 0 0 1-.764.248l-2.607-.368a2.69 2.69 0 0 0-3.04 2.208l-.454 2.593a.909.909 0 0 1-.472.65L1.439 9.16a2.691 2.691 0 0 0-1.161 3.573L1.434 15.1a.909.909 0 0 1 0 .803L.278 18.267a2.691 2.691 0 0 0 1.161 3.573l2.326 1.234c.25.133.423.37.472.65l.455 2.593a2.69 2.69 0 0 0 3.04 2.209l2.606-.369c.281-.04.56.05.764.248l1.892 1.83a2.693 2.693 0 0 0 3.758 0l1.892-1.83a.909.909 0 0 1 .763-.248l2.607.369a2.69 2.69 0 0 0 3.04-2.209l.455-2.593a.908.908 0 0 1 .472-.65l2.325-1.234a2.691 2.691 0 0 0 1.162-3.573l-1.157-2.365zm-.843 4.359l-2.325 1.234a2.685 2.685 0 0 0-1.395 1.92l-.455 2.593a.91.91 0 0 1-1.028.747l-2.607-.368a2.685 2.685 0 0 0-2.258.733l-1.892 1.83a.91.91 0 0 1-1.27 0l-1.893-1.83a2.682 2.682 0 0 0-2.257-.733l-2.607.368a.91.91 0 0 1-1.028-.747l-.455-2.593a2.685 2.685 0 0 0-1.395-1.92L2.277 20.26a.91.91 0 0 1-.393-1.21l1.156-2.364a2.685 2.685 0 0 0 0-2.374l-1.156-2.365a.91.91 0 0 1 .393-1.209l2.326-1.234a2.685 2.685 0 0 0 1.395-1.92l.454-2.593a.91.91 0 0 1 1.029-.747l2.607.368a2.685 2.685 0 0 0 2.257-.733l1.892-1.83a.91.91 0 0 1 1.271 0L17.4 3.88a2.685 2.685 0 0 0 2.258.733l2.606-.368a.91.91 0 0 1 1.029.747l.455 2.593a2.685 2.685 0 0 0 1.395 1.92l2.325 1.234a.91.91 0 0 1 .393 1.21l-1.156 2.364a2.685 2.685 0 0 0 0 2.374l1.156 2.365a.91.91 0 0 1-.393 1.209z" fill="#BE1622"/><path d="M21.405 8.968a.894.894 0 0 0-1.265 0l-11.8 11.8a.894.894 0 0 0 1.265 1.264l11.8-11.8a.894.894 0 0 0 0-1.264zM11.297 7.454a3.282 3.282 0 0 0-3.278 3.278 3.282 3.282 0 0 0 3.278 3.278 3.282 3.282 0 0 0 3.278-3.278 3.282 3.282 0 0 0-3.278-3.278zm0 4.768c-.822 0-1.49-.668-1.49-1.49 0-.821.668-1.49 1.49-1.49.821 0 1.49.669 1.49 1.49 0 .822-.669 1.49-1.49 1.49zM18.448 16.99a3.282 3.282 0 0 0-3.277 3.278 3.282 3.282 0 0 0 3.277 3.278 3.282 3.282 0 0 0 3.278-3.278 3.282 3.282 0 0 0-3.277-3.278zm0 4.768c-.821 0-1.49-.669-1.49-1.49 0-.822.669-1.49 1.49-1.49.822 0 1.49.668 1.49 1.49 0 .821-.668 1.49-1.49 1.49z" fill="#BE1622"/></svg>
